X:1
T:The Rains Of Castamere
T:The Rains Of Castamere
T: arrgt : AnonymYoux
%%score 1 2 3
L:1/8
Q:1/4=88
M:4/4
K:F
V:1 bass nm="Violoncelo" snm="Vc."
V:2 bass nm="Violoncelle" snm="Vlc"
V:3 bass-8 nm="Contrebasse" snm="Cb."
V:1
 z A,, | [A,,F,]3 A,, E,3 A,, | [A,,F,]2 G,2 E,3 A,, | [A,,G,]2 F,2 E,2 D,2 | [C,E,]4 z4 | %5
 [C,A,] A,2 B, [C,G,]2 C,C, | [C,A,]2 B,2 [C,G,]3 A, | B,2 A,2 G,2 F,2 | E,4 z2 z A,, | %9
 [A,,F,]3 A,, E,2 z A,, | [A,,F,]2 G,2 E,3 A,, | [A,,G,]2 F,2 E,2 D,2 | [C,E,]4 z2 z C, | %13
 A,3 B, G,3 C, | [C,A,]2 B,2 [C,G,]3 A, | B,2 A,2 G,2 F,2 | D,8 | z4 z2 A,,2 | E,F, D,4 F,2 | %19
 F,E, A,,4 z A,, | F,F, D,4 F,2 | F, E,3 z2 z A,, | E,F, D,4 A,2 | A,2 G,2 D,3 F, | F,3 D, E,3 C, | %25
 D,4 z2 A,,2 | E,F, D,4 A,2 | A,2 G,2 D,3 F, | F,3 D, A,G,E,F, | D,6 z A, | [A,,F,]3 A,, E,3 A,, | %31
 [A,,F,]2 G,2 E,3 A,, | [A,,G,]2 F,2 E,2 D,2 | [C,E,]4 z4 | [C,A,] A,2 B, [C,G,]2 C,C, | %35
 [C,A,]2 B,2 [C,G,]3 A, | B,2 A,2 G,2 F,2 | E,4 z2 z A,, | [A,,F,]3 A,, E,3 A,, | %39
 [A,,F,]2 G,2 E,3 A,, | [A,,G,]2 F,2 E,2 D,2 | E,4 z2 z C, | A,3 B, G,3 C, | %43
 [C,A,]2 B,2 [C,G,]3 A, | B,2 A,2 G,2 F,2 | D,8 | z4 z2 A,,2 | E,F, D,4 F,2 | F,E, A,,4 z A,, | %49
 F,F, D,4 F,2 | F, E,3 z2 z A,, | E,F, D,4 A,2 | A,2 G,2 D,3 F, | F,3 D, E,3 C, | D,4 z2 A,,2 | %55
 E,F, D,4 A,2 | A,2 G,2 D,3 F, | F,3 D, A,G,E,F, | D,6 z C | E,F, D,4 A,2 | A,2 G,2 D,3 F, | %61
 F,3 D, A,G,E,F, | !fermata!D,8 |] %63
V:2
 z2 | D,,6 x2 | D,,6 x2 | D,,6 x2 | C,4 G,4 | F,,4 C,4 | F,,4 C,4 | [G,,G,]6 x2 | A,,6 x2 | %9
 D,,A,, D,6 | D,,A,, D,6 | D,,A,, D,6 | C,2 G,2 C4 | F,,C, F,2 C,4 | F,,C, F,2 C,4 | %15
 G,,D, G,2 A,,E, A,2 | D,,3 A,, D,A,D,A,, | D,,3 A,, D,4 | D,,3 A,, D,4 | A,,3 E, C4 | %20
 D,,3 A,, D,4 | A,,3 E, C4 | B,,3 B,, B,2 A,,2 | G,, D,2 G, x4 | B,,F, B,2 A,,2 E,2 | %25
 D,,3 A,, D,4 | B,,3 B,, B,2 A,,2 | G,, D,2 G, z4 | B,,4 A,,4 | D,,4 z4 | [D,,D,]6 x2 | %31
 [D,,D,]6 x2 | [D,,D,]6 x2 | C,4 G,4 | F,,4 C,4 | F,,4 C,4 | G,,6 z2 | A,,6 z2 | D,,A,, D,6 | %39
 D,,A,, D,6 | D,,A,, D,6 | C,,2 G,,2 C,4 | F,,C, F,2 C,4 | F,,C, F,2 C,4 | G,,D, G,2 A,,E, A,2 | %45
 D,,3 A,, D,A,D,A,, | D,,3 A,, D,4 | D,,3 A,, D,4 | A,,3 E, C,4 | D,,3 A,, D,4 | A,,3 E, C,4 | %51
 B,,3 B,, B,,2 A,,2 | G,, D,2 G, x4 | B,,F, B,,2 A,,2 E,2 | D,,3 A,, D,4 | B,,3 B,, B,,2 A,,2 | %56
 G,, D,2 G, x4 | B,,4 A,,4 | D,,3 A,, D,4 | B,,3 B,, B,,2 A,,2 | G,, D,2 G, z4 | B,,4 A,,4 | %62
 !fermata![D,,D,]8 |] %63
V:3
 z2 | D,8 | D,8 | D,8 | C,8 | F,8 | C,8 | G,8 | A,8 | D,8 | D,8 | D,8 | C,8 | F,8 | F,4 C,4 | %15
 G,4 A,4 | D,8 | D,8 | D,8 | A,8 | D,8 | A,8 | B,6 A,2 | G,8 | G,4 A,4 | D,8 | B,6 A,2 | G,8 | %28
 B,4 A,4 | D,8 | D,8 | D,8 | D,8 | C,4 G,4 | F,8 | C,8 | G,8 | A,8 | D,8 | D,8 | D,8 | C,8 | F,8 | %43
 C,8 | G,4 A,4 | D,8 | D,8 | D,8 | A,8 | D,8 | A,8 | B,6 A,2 | G,8 | B,8 | D,8 | B,8 | G,8 | %57
 B,4 A,4 | F,8 | B,6 A,2 | G,8 | B,4 A,4 | D,4 z4 |] %63

